X:1
T:Title
%%score { ( 1 4 ) | ( 2 3 ) }
L:1/8
M:4/4
K:G
V:1 treble nm="Grand Piano"
V:4 treble 
V:2 treble 
V:3 treble 
V:1
 z4 z2[Q:1/4=100] Bc | d3 e G2 [FA]2 | B2 D2 EFGA | B2 G2 d3 [DGB] |[M:3/4] [DFA]6 |[M:1/4] Bc | %6
[M:4/4] d3 e G2 [DFA]2 | z4 z2 .[DG]2 | B2 c2 B3 A |[M:3/4] [B,DG]6 |[M:1/4] dB | %11
[M:4/4] G>G GG G2 e2 | d6 z2 | [B,DG]2 [A,DF]2 [G,DG]3 [DGB] |[M:3/4] [DFA]6 |[M:1/4] d z | %16
[M:4/4] G>G GG B2 [DGd]2 | [Ge]6 .c2 | [Dd]2 [DB]2 [DGB]3 [CFA] |[M:3/4] [B,G]6 |] %20
V:2
 z4 z2 [G,D]2 | [G,B,G]3 [G,CG] [G,B,D]2[K:bass] [D,D]2 | z4 C2 z2 | %3
 [G,D]2 [G,B,D]2 [G,B,G]3[K:bass] G,, |[M:3/4] D,6 |[M:1/4] [G,D]2 | %6
[M:4/4][K:treble] [G,B,G]3 [G,CG][K:bass] [G,B,D]2 D,2 | G,2 B,,2 z FB,,C, | %8
 [D,G,D]2 [D,A,D]2 [D,G,D]3 [D,CD] |[M:3/4] G,,6 |[M:1/4][K:treble] G-[G,G] | %11
[M:4/4] [G,B,D]>[G,B,D] [G,B,D][G,B,D] [G,B,D]2 [G,CG]2 | G2- [D,G-]2 [G,,G]2 z B, | %13
 G,,2 C,2 B,,3 G,, |[M:3/4] D,^C, D,E, D,=C, |[M:1/4] [B,,B,][D,G,] | %16
[M:4/4][K:treble] [G,B,D]>[G,B,D] [G,B,D][G,B,D] [G,DG]2[K:bass] B,,2 | [C,C]2 E,G, C,2 [C,G,]2 | %18
 [B,,G,]2 [D,G,]2 D,3 D, |[M:3/4] G,,6 |] %20
V:3
 z4 z2 z A, | x6[K:bass] x2 | [G,DG]2 [B,,G,]2 [C,G,][A,,A,][B,,G,][D,F,] | x7[K:bass] x | %4
[M:3/4] x6 |[M:1/4] z A, |[M:4/4][K:treble] x4[K:bass] x4 | z4 A,,2 z2 | x8 |[M:3/4] x6 | %10
[M:1/4][K:treble] [G,B,] z |[M:4/4] x8 | [G,B,]2 z2 z2 G,,2 | x8 |[M:3/4] x6 |[M:1/4] x2 | %16
[M:4/4][K:treble] x6[K:bass] x2 | x8 | x8 |[M:3/4] x6 |] %20
V:4
 x8 | x8 | z4 z2 D2 | x8 |[M:3/4] x6 |[M:1/4] x2 |[M:4/4] x8 | [DGB]2 [G,D]2 .[A,CE]2 G,-[G,EA] | %8
 x8 |[M:3/4] x6 |[M:1/4] x2 |[M:4/4] x8 | z2 B,2 B,2 [DGB][DA] | x8 |[M:3/4] x6 |[M:1/4] G-[GB] | %16
[M:4/4] x8 | z2 CC C2 E-[EA] | x8 |[M:3/4] x6 |] %20

